X:425
T: Ban genzi cao
N: C1460
O: China,Hubei,Qianjiang
S: I, 459]
R: Xiaodiao, Qingge]
M: 2/4
L: 1/16
K: A
b2bafaaf | beefe4 |
ababe4 | abace2a2 |
babbc4 | bagae4 |
A8 | e2c2c2e2B2A2F4
bcbafaae | befee4 |
ababe4 | bafaa2a2 | abbae4

@@@ Tune index: 6426
